; G-Code generated by Simplify3D(R) Version 4.0.0
; Feb 2, 2020 at 9:25:13 PM
; Settings Summary
;   processName,Process1
;   applyToModels,SERVOLOCK2
;   profileName,ANET A8 - BQ ROJO (modified)
;   profileVersion,2017-06-19 18:47:58
;   baseProfile,ANET A8
;   printMaterial,
;   printQuality,
;   printExtruders,
;   extruderName,Primary Extruder
;   extruderToolheadNumber,0
;   extruderDiameter,0.4
;   extruderAutoWidth,0
;   extruderWidth,0.4
;   extrusionMultiplier,0.9
;   extruderUseRetract,1
;   extruderRetractionDistance,3
;   extruderExtraRestartDistance,-0.1
;   extruderRetractionZLift,0
;   extruderRetractionSpeed,4200
;   extruderUseCoasting,0
;   extruderCoastingDistance,0.2
;   extruderUseWipe,0
;   extruderWipeDistance,5
;   primaryExtruder,0
;   layerHeight,0.3
;   topSolidLayers,4
;   bottomSolidLayers,4
;   perimeterOutlines,4
;   printPerimetersInsideOut,1
;   startPointOption,2
;   startPointOriginX,0
;   startPointOriginY,0
;   sequentialIslands,0
;   spiralVaseMode,0
;   firstLayerHeightPercentage,90
;   firstLayerWidthPercentage,100
;   firstLayerUnderspeed,0.5
;   useRaft,0
;   raftExtruder,0
;   raftTopLayers,3
;   raftBaseLayers,2
;   raftOffset,3
;   raftSeparationDistance,0.14
;   raftTopInfill,100
;   aboveRaftSpeedMultiplier,0.3
;   useSkirt,1
;   skirtExtruder,0
;   skirtLayers,1
;   skirtOutlines,4
;   skirtOffset,2
;   usePrimePillar,0
;   primePillarExtruder,999
;   primePillarWidth,12
;   primePillarLocation,7
;   primePillarSpeedMultiplier,1
;   useOozeShield,0
;   oozeShieldExtruder,999
;   oozeShieldOffset,2
;   oozeShieldOutlines,1
;   oozeShieldSidewallShape,1
;   oozeShieldSidewallAngle,30
;   oozeShieldSpeedMultiplier,1
;   infillExtruder,0
;   internalInfillPattern,Rectilinear
;   externalInfillPattern,Rectilinear
;   infillPercentage,100
;   outlineOverlapPercentage,25
;   infillExtrusionWidthPercentage,150
;   minInfillLength,0
;   infillLayerInterval,1
;   internalInfillAngles,0,60,-60
;   overlapInternalInfillAngles,0
;   externalInfillAngles,45,-45
;   generateSupport,1
;   supportExtruder,0
;   supportInfillPercentage,30
;   supportExtraInflation,0
;   supportBaseLayers,0
;   denseSupportExtruder,0
;   denseSupportLayers,0
;   denseSupportInfillPercentage,70
;   supportLayerInterval,1
;   supportHorizontalPartOffset,0.35
;   supportUpperSeparationLayers,1
;   supportLowerSeparationLayers,1
;   supportType,0
;   supportGridSpacing,3
;   maxOverhangAngle,45
;   supportAngles,45,-45
;   temperatureName,Primary Extruder,cama
;   temperatureNumber,0,0
;   temperatureSetpointCount,2,1
;   temperatureSetpointLayers,1,2,1
;   temperatureSetpointTemperatures,200,190,60
;   temperatureStabilizeAtStartup,1,1
;   temperatureHeatedBed,0,1
;   temperatureRelayBetweenLayers,0,0
;   temperatureRelayBetweenLoops,0,0
;   fanLayers,1,2
;   fanSpeeds,0,100
;   blipFanToFullPower,0
;   adjustSpeedForCooling,1
;   minSpeedLayerTime,15
;   minCoolingSpeedSlowdown,25
;   increaseFanForCooling,0
;   minFanLayerTime,45
;   maxCoolingFanSpeed,100
;   increaseFanForBridging,0
;   bridgingFanSpeed,100
;   use5D,1
;   relativeEdistances,0
;   allowEaxisZeroing,1
;   independentExtruderAxes,0
;   includeM10123,0
;   stickySupport,1
;   applyToolheadOffsets,0
;   gcodeXoffset,0
;   gcodeYoffset,0
;   gcodeZoffset,0
;   overrideMachineDefinition,0
;   machineTypeOverride,0
;   strokeXoverride,200
;   strokeYoverride,200
;   strokeZoverride,200
;   originOffsetXoverride,0
;   originOffsetYoverride,0
;   originOffsetZoverride,0
;   homeXdirOverride,-1
;   homeYdirOverride,-1
;   homeZdirOverride,-1
;   flipXoverride,1
;   flipYoverride,-1
;   flipZoverride,1
;   toolheadOffsets,0,0|0,0|0,0|0,0|0,0|0,0
;   overrideFirmwareConfiguration,0
;   firmwareTypeOverride,RepRap (Marlin/Repetier/Sprinter)
;   GPXconfigOverride,r2
;   baudRateOverride,115200
;   overridePrinterModels,0
;   printerModelsOverride
;   startingGcode,G21;,G90;,M82;,M107;,G28 X0 Y0;,G28 Z0;,G92 E0;,G1 Z10;,M117 Imprimiendo...;
;   layerChangeGcode,
;   retractionGcode,
;   toolChangeGcode,
;   endingGcode,G10;,G92 Z0;,G1 Z5;,M107;,G1 X0 Y0;,M104 S0 ; turn off extruder,M140 S0 ; turn off bed,M84 ; disable motors,;victory,M300 S2349 P53;,M300 S0 P53;,M300 S2349 P53;,M300 S0 P53;,M300 S2349 P53;,M300 S0 P53;,M300 S2349 P428;,M300 S932 P428;,M300 S2093 P428;,M300 S2349 P107;,M300 S0 P214;,M300 S2093 P107;,M300 S2349 P857;
;   exportFileFormat,gcode
;   celebration,0
;   celebrationSong,Random Song
;   postProcessing,{REPLACE "; layer" "M117 Capa"},{REPLACE " Z = " " Z="}
;   defaultSpeed,3600
;   outlineUnderspeed,0.5
;   solidInfillUnderspeed,0.8
;   supportUnderspeed,0.8
;   rapidXYspeed,6000
;   rapidZspeed,600
;   minBridgingArea,50
;   bridgingExtraInflation,0
;   bridgingExtrusionMultiplier,1
;   bridgingSpeedMultiplier,1
;   useFixedBridgingAngle,0
;   fixedBridgingAngle,0
;   applyBridgingToPerimeters,0
;   filamentDiameters,1.75|1.75|1.75|1.75|1.75|1.75
;   filamentPricesPerKg,46|46|46|46|46|46
;   filamentDensities,1.25|1.25|1.25|1.25|1.25|1.25
;   useMinPrintHeight,0
;   minPrintHeight,0
;   useMaxPrintHeight,0
;   maxPrintHeight,19.27
;   useDiaphragm,0
;   diaphragmLayerInterval,20
;   robustSlicing,1
;   mergeAllIntoSolid,0
;   onlyRetractWhenCrossingOutline,1
;   retractBetweenLayers,0
;   useRetractionMinTravel,1
;   retractionMinTravel,5
;   retractWhileWiping,0
;   onlyWipeOutlines,0
;   avoidCrossingOutline,1
;   maxMovementDetourFactor,3
;   toolChangeRetractionDistance,12
;   toolChangeExtraRestartDistance,-0.5
;   toolChangeRetractionSpeed,600
;   externalThinWallType,0
;   internalThinWallType,2
;   thinWallAllowedOverlapPercentage,15
;   singleExtrusionMinLength,1
;   singleExtrusionMinPrintingWidthPercentage,50
;   singleExtrusionMaxPrintingWidthPercentage,200
;   singleExtrusionEndpointExtension,0.2
;   horizontalSizeCompensation,0
G90
M82
M106 S0
M140 S60
M190 S60
M104 S200 T0
M109 S200 T0
G21;
G90;
M82;
M107;
G28 X0 Y0;
G28 Z0;
G92 E0;
G1 Z10;
M117 Imprimiendo...;
G92 E0
G1 E-3.0000 F4200
G1 Z0.270 F600
; process Process1
M117 Capa 1, Z=0.270
T0
; tool H0.300 W0.400
; skirt
G1 X63.379 Y79.313 F6000
G1 E-0.1000 F1260
G92 E0
G1 X63.893 Y79.100 E0.0250 F1800
G1 X136.107 Y79.100 E3.2675
G1 X136.621 Y79.313 E3.2925
G1 X138.187 Y80.879 E3.3919
G1 X138.400 Y81.393 E3.4169
G1 X138.400 Y118.607 E5.0879
G1 X138.187 Y119.121 E5.1129
G1 X136.621 Y120.687 E5.2123
G1 X136.107 Y120.900 E5.2373
G1 X63.893 Y120.900 E8.4798
G1 X63.379 Y120.687 E8.5048
G1 X61.813 Y119.121 E8.6042
G1 X61.600 Y118.607 E8.6292
G1 X61.600 Y81.393 E10.3001
G1 X61.813 Y80.879 E10.3251
G1 X63.379 Y79.313 E10.4245
G1 X63.605 Y79.652 F6000
G92 E0
G1 X63.973 Y79.500 E0.0179 F1800
G1 X136.027 Y79.500 E3.2532
G1 X136.395 Y79.652 E3.2711
G1 X137.848 Y81.105 E3.3633
G1 X138.000 Y81.473 E3.3812
G1 X138.000 Y118.527 E5.0450
G1 X137.848 Y118.895 E5.0628
G1 X136.395 Y120.348 E5.1551
G1 X136.027 Y120.500 E5.1730
G1 X63.973 Y120.500 E8.4083
G1 X63.605 Y120.348 E8.4262
G1 X62.152 Y118.895 E8.5184
G1 X62.000 Y118.527 E8.5363
G1 X62.000 Y81.473 E10.2001
G1 X62.152 Y81.105 E10.2180
G1 X63.605 Y79.652 E10.3102
G1 X63.832 Y79.991 F6000
G92 E0
G1 X64.052 Y79.900 E0.0107 F1800
G1 X135.948 Y79.900 E3.2389
G1 X136.168 Y79.991 E3.2496
G1 X137.509 Y81.332 E3.3347
G1 X137.600 Y81.552 E3.3455
G1 X137.600 Y118.448 E5.0021
G1 X137.509 Y118.668 E5.0128
G1 X136.168 Y120.009 E5.0979
G1 X135.948 Y120.100 E5.1087
G1 X64.052 Y120.100 E8.3369
G1 X63.832 Y120.009 E8.3476
G1 X62.491 Y118.668 E8.4327
G1 X62.400 Y118.448 E8.4434
G1 X62.400 Y81.552 E10.1001
G1 X62.491 Y81.332 E10.1108
G1 X63.832 Y79.991 E10.1959
G1 X64.058 Y80.330 F6000
G92 E0
G1 X64.132 Y80.300 E0.0036 F1800
G1 X135.868 Y80.300 E3.2246
G1 X135.942 Y80.330 E3.2282
G1 X137.170 Y81.558 E3.3062
G1 X137.200 Y81.632 E3.3097
G1 X137.200 Y118.368 E4.9592
G1 X137.170 Y118.442 E4.9628
G1 X135.942 Y119.670 E5.0408
G1 X135.868 Y119.700 E5.0444
G1 X64.132 Y119.700 E8.2654
G1 X64.058 Y119.670 E8.2690
G1 X62.830 Y118.442 E8.3469
G1 X62.800 Y118.368 E8.3505
G1 X62.800 Y81.632 E10.0000
G1 X62.830 Y81.558 E10.0036
G1 X64.058 Y80.330 E10.0816
; inner perimeter
G1 X65.196 Y82.696 F6000
G1 X65.610 Y82.696 F6000
G1 X66.400 Y83.900 F6000
G92 E0
G1 X133.600 Y83.900 E3.0174 F1350
G1 X133.600 Y116.100 E4.4632
G1 X66.400 Y116.100 E7.4805
G1 X66.400 Y83.900 E8.9264
G1 X66.000 Y83.500 F6000
G92 E0
G1 X134.000 Y83.500 E3.0533 F1350
G1 X134.000 Y116.500 E4.5350
G1 X66.000 Y116.500 E7.5883
G1 X66.000 Y83.500 E9.0700
G1 X65.600 Y83.100 F6000
G92 E0
G1 X134.400 Y83.100 E3.0892 F1350
G1 X134.400 Y116.900 E4.6069
G1 X65.600 Y116.900 E7.6961
G1 X65.600 Y83.100 E9.2137
; outer perimeter
G1 X65.200 Y82.700 F6000
G92 E0
G1 X134.800 Y82.700 E3.1251 F900
G1 X134.800 Y117.300 E4.6787
G1 X65.200 Y117.300 E7.8038
G1 X65.200 Y82.700 E9.3574
; inner perimeter
G1 X73.600 Y95.100 F6000
G92 E0
G1 X73.600 Y106.900 E0.5298 F1350
G1 X81.400 Y106.900 E0.8801
G1 X81.400 Y95.100 E1.4099
G1 X73.600 Y95.100 E1.7601
G1 X74.000 Y95.500 F6000
G92 E0
G1 X74.000 Y106.500 E0.4939 F1350
G1 X81.000 Y106.500 E0.8082
G1 X81.000 Y95.500 E1.3021
G1 X74.000 Y95.500 E1.6164
G1 X74.400 Y95.900 F6000
G92 E0
G1 X74.400 Y106.100 E0.4580 F1350
G1 X80.600 Y106.100 E0.7364
G1 X80.600 Y95.900 E1.1944
G1 X74.400 Y95.900 E1.4728
; outer perimeter
G1 X74.800 Y96.300 F6000
G92 E0
G1 X74.800 Y105.700 E0.4221 F900
G1 X80.200 Y105.700 E0.6645
G1 X80.200 Y96.300 E1.0866
G1 X74.800 Y96.300 E1.3291
; solid layer
G1 X81.700 Y95.276 F6000
G92 E0
G1 X102.224 Y115.800 E1.3032 F1440
G1 X101.658 Y115.800 E1.3286
G1 X81.700 Y95.842 E2.5960
G1 X81.700 Y96.408 E2.6214
G1 X101.092 Y115.800 E3.8528
G1 X100.527 Y115.800 E3.8782
G1 X81.700 Y96.973 E5.0736
G1 X81.700 Y97.539 E5.0990
G1 X99.961 Y115.800 E6.2586
G1 X99.395 Y115.800 E6.2840
G1 X81.700 Y98.105 E7.4076
G1 X81.700 Y98.671 E7.4330
G1 X98.829 Y115.800 E8.5208
G1 X98.264 Y115.800 E8.5462
G1 X81.700 Y99.236 E9.5980
G1 X81.700 Y99.802 E9.6234
G1 X97.698 Y115.800 E10.6392
G1 X97.132 Y115.800 E10.6646
G1 X81.700 Y100.368 E11.6446
G1 X81.700 Y100.933 E11.6700
G1 X96.567 Y115.800 E12.6140
G1 X96.001 Y115.800 E12.6394
G1 X81.700 Y101.499 E13.5475
G1 X81.700 Y102.065 E13.5729
G1 X95.435 Y115.800 E14.4451
G1 X94.870 Y115.800 E14.4705
G1 X81.700 Y102.630 E15.3068
G1 X81.700 Y103.196 E15.3322
G1 X94.304 Y115.800 E16.1326
G1 X93.738 Y115.800 E16.1580
G1 X81.700 Y103.762 E16.9224
G1 X81.700 Y104.327 E16.9478
G1 X93.173 Y115.800 E17.6763
G1 X92.607 Y115.800 E17.7017
G1 X81.700 Y104.893 E18.3943
G1 X81.700 Y105.459 E18.4197
G1 X92.041 Y115.800 E19.0763
G1 X91.476 Y115.800 E19.1017
G1 X81.700 Y106.024 E19.7225
G1 X81.700 Y106.590 E19.7479
G1 X90.910 Y115.800 E20.3327
G1 X90.344 Y115.800 E20.3581
G1 X81.700 Y107.156 E20.9070
G1 X81.700 Y107.200 E20.9090
G1 X81.178 Y107.200 E20.9324
G1 X89.778 Y115.800 E21.4785
G1 X89.213 Y115.800 E21.5039
G1 X80.613 Y107.200 E22.0500
G1 X80.047 Y107.200 E22.0754
G1 X88.647 Y115.800 E22.6215
G1 X88.081 Y115.800 E22.6469
G1 X79.481 Y107.200 E23.1930
G1 X78.916 Y107.200 E23.2184
G1 X87.516 Y115.800 E23.7645
G1 X86.950 Y115.800 E23.7899
G1 X78.350 Y107.200 E24.3360
G1 X77.784 Y107.200 E24.3614
G1 X86.384 Y115.800 E24.9075
G1 X85.819 Y115.800 E24.9329
G1 X77.219 Y107.200 E25.4790
G1 X76.653 Y107.200 E25.5044
G1 X85.253 Y115.800 E26.0505
G1 X84.687 Y115.800 E26.0759
G1 X76.087 Y107.200 E26.6220
G1 X75.522 Y107.200 E26.6474
G1 X84.122 Y115.800 E27.1935
G1 X83.556 Y115.800 E27.2189
G1 X74.956 Y107.200 E27.7650
G1 X74.390 Y107.200 E27.7904
G1 X82.990 Y115.800 E28.3365
G1 X82.425 Y115.800 E28.3619
G1 X73.825 Y107.200 E28.9080
G1 X67.151 Y115.800 F6000
G92 E0
G1 X66.700 Y115.349 E0.0286 F1440
G1 X66.700 Y114.783 E0.0540
G1 X67.717 Y115.800 E0.1186
G1 X68.282 Y115.800 E0.1440
G1 X66.700 Y114.218 E0.2445
G1 X66.700 Y113.652 E0.2699
G1 X68.848 Y115.800 E0.4063
G1 X69.414 Y115.800 E0.4317
G1 X66.700 Y113.086 E0.6040
G1 X66.700 Y112.521 E0.6294
G1 X69.979 Y115.800 E0.8377
G1 X70.545 Y115.800 E0.8631
G1 X66.700 Y111.955 E1.1072
G1 X66.700 Y111.389 E1.1326
G1 X71.111 Y115.800 E1.4127
G1 X71.677 Y115.800 E1.4381
G1 X66.700 Y110.823 E1.7541
G1 X66.700 Y110.258 E1.7795
G1 X72.242 Y115.800 E2.1315
G1 X72.808 Y115.800 E2.1569
G1 X66.700 Y109.692 E2.5447
G1 X66.700 Y109.126 E2.5701
G1 X73.374 Y115.800 E2.9939
G1 X73.939 Y115.800 E3.0193
G1 X66.700 Y108.561 E3.4790
G1 X66.700 Y107.995 E3.5044
G1 X74.505 Y115.800 E4.0000
G1 X75.071 Y115.800 E4.0254
G1 X66.700 Y107.429 E4.5569
G1 X66.700 Y106.864 E4.5823
G1 X75.636 Y115.800 E5.1498
G1 X76.202 Y115.800 E5.1752
G1 X66.700 Y106.298 E5.7786
G1 X66.700 Y105.732 E5.8040
G1 X76.768 Y115.800 E6.4433
G1 X77.333 Y115.800 E6.4687
G1 X66.700 Y105.167 E7.1439
G1 X66.700 Y104.601 E7.1693
G1 X77.899 Y115.800 E7.8804
G1 X78.465 Y115.800 E7.9058
G1 X66.700 Y104.035 E8.6529
G1 X66.700 Y103.470 E8.6783
G1 X79.030 Y115.800 E9.4613
G1 X79.596 Y115.800 E9.4867
G1 X66.700 Y102.904 E10.3056
G1 X66.700 Y102.338 E10.3310
G1 X80.162 Y115.800 E11.1858
G1 X80.728 Y115.800 E11.2112
G1 X66.700 Y101.772 E12.1019
G1 X66.700 Y101.207 E12.1273
G1 X81.293 Y115.800 E13.0540
G1 X81.859 Y115.800 E13.0794
G1 X66.700 Y100.641 E14.0420
G1 X66.700 Y100.075 E14.0674
G1 X73.300 Y106.675 E14.4865
G1 X73.300 Y106.110 E14.5119
G1 X66.700 Y99.510 E14.9310
G1 X66.700 Y98.944 E14.9564
G1 X73.300 Y105.544 E15.3755
G1 X73.300 Y104.978 E15.4009
G1 X66.700 Y98.378 E15.8200
G1 X66.700 Y97.813 E15.8454
G1 X73.300 Y104.413 E16.2645
G1 X73.300 Y103.847 E16.2899
G1 X66.700 Y97.247 E16.7090
G1 X66.700 Y96.681 E16.7344
G1 X73.300 Y103.281 E17.1535
G1 X73.300 Y102.716 E17.1789
G1 X66.700 Y96.116 E17.5980
G1 X66.700 Y95.550 E17.6234
G1 X73.300 Y102.150 E18.0425
G1 X73.300 Y101.584 E18.0679
G1 X66.700 Y94.984 E18.4870
G1 X66.700 Y94.419 E18.5124
G1 X73.300 Y101.019 E18.9315
G1 X73.300 Y100.453 E18.9569
G1 X66.700 Y93.853 E19.3760
G1 X66.700 Y93.287 E19.4014
G1 X73.300 Y99.887 E19.8205
G1 X73.300 Y99.322 E19.8459
G1 X66.700 Y92.722 E20.2650
G1 X66.700 Y92.156 E20.2904
G1 X73.300 Y98.756 E20.7095
G1 X73.300 Y98.190 E20.7349
G1 X66.700 Y91.590 E21.1540
G1 X66.700 Y91.024 E21.1794
G1 X73.300 Y97.624 E21.5985
G1 X73.300 Y97.059 E21.6239
G1 X66.700 Y90.459 E22.0430
G1 X66.700 Y89.893 E22.0684
G1 X73.300 Y96.493 E22.4875
G1 X73.300 Y95.927 E22.5129
G1 X66.700 Y89.327 E22.9320
G1 X66.700 Y88.762 E22.9574
G1 X73.300 Y95.362 E23.3765
G1 X73.300 Y94.800 E23.4017
G1 X73.304 Y94.800 E23.4019
G1 X66.700 Y88.196 E23.8212
G1 X66.700 Y87.630 E23.8466
G1 X73.870 Y94.800 E24.3019
G1 X74.435 Y94.800 E24.3273
G1 X66.700 Y87.065 E24.8185
G1 X66.700 Y86.499 E24.8439
G1 X75.001 Y94.800 E25.3710
G1 X75.567 Y94.800 E25.3964
G1 X66.700 Y85.933 E25.9594
G1 X66.700 Y85.368 E25.9848
G1 X76.132 Y94.800 E26.5838
G1 X76.698 Y94.800 E26.6092
G1 X66.700 Y84.802 E27.2441
G1 X66.700 Y84.236 E27.2695
G1 X77.264 Y94.800 E27.9403
G1 X77.829 Y94.800 E27.9657
G1 X67.229 Y84.200 E28.6388
G1 X67.795 Y84.200 E28.6642
G1 X78.395 Y94.800 E29.3373
G1 X78.961 Y94.800 E29.3627
G1 X68.361 Y84.200 E30.0358
G1 X68.927 Y84.200 E30.0612
G1 X79.527 Y94.800 E30.7343
G1 X80.092 Y94.800 E30.7597
G1 X69.492 Y84.200 E31.4328
G1 X70.058 Y84.200 E31.4582
G1 X80.658 Y94.800 E32.1313
G1 X81.224 Y94.800 E32.1567
G1 X70.624 Y84.200 E32.8298
G1 X71.189 Y84.200 E32.8552
G1 X102.789 Y115.800 E34.8618
G1 X103.355 Y115.800 E34.8872
G1 X71.755 Y84.200 E36.8938
G1 X72.321 Y84.200 E36.9192
G1 X103.921 Y115.800 E38.9258
G1 X104.486 Y115.800 E38.9512
G1 X72.886 Y84.200 E40.9577
G1 X73.452 Y84.200 E40.9831
G1 X105.052 Y115.800 E42.9897
G1 X105.618 Y115.800 E43.0151
G1 X74.018 Y84.200 E45.0217
