; G-Code generated by Simplify3D(R) Version 4.0.0
; Feb 9, 2020 at 6:41:33 PM
; Settings Summary
;   processName,Process1
;   applyToModels,tapacerrojopared1
;   profileName,ANET A8 - BQ ROJO (modified)
;   profileVersion,2017-06-19 18:47:58
;   baseProfile,ANET A8
;   printMaterial,
;   printQuality,
;   printExtruders,
;   extruderName,Primary Extruder
;   extruderToolheadNumber,0
;   extruderDiameter,0.4
;   extruderAutoWidth,0
;   extruderWidth,0.4
;   extrusionMultiplier,0.9
;   extruderUseRetract,1
;   extruderRetractionDistance,3
;   extruderExtraRestartDistance,-0.1
;   extruderRetractionZLift,0
;   extruderRetractionSpeed,4200
;   extruderUseCoasting,0
;   extruderCoastingDistance,0.2
;   extruderUseWipe,0
;   extruderWipeDistance,5
;   primaryExtruder,0
;   layerHeight,0.3
;   topSolidLayers,4
;   bottomSolidLayers,4
;   perimeterOutlines,4
;   printPerimetersInsideOut,1
;   startPointOption,2
;   startPointOriginX,0
;   startPointOriginY,0
;   sequentialIslands,0
;   spiralVaseMode,0
;   firstLayerHeightPercentage,90
;   firstLayerWidthPercentage,100
;   firstLayerUnderspeed,0.5
;   useRaft,0
;   raftExtruder,0
;   raftTopLayers,3
;   raftBaseLayers,2
;   raftOffset,3
;   raftSeparationDistance,0.14
;   raftTopInfill,100
;   aboveRaftSpeedMultiplier,0.3
;   useSkirt,1
;   skirtExtruder,0
;   skirtLayers,1
;   skirtOutlines,4
;   skirtOffset,2
;   usePrimePillar,0
;   primePillarExtruder,999
;   primePillarWidth,12
;   primePillarLocation,7
;   primePillarSpeedMultiplier,1
;   useOozeShield,0
;   oozeShieldExtruder,999
;   oozeShieldOffset,2
;   oozeShieldOutlines,1
;   oozeShieldSidewallShape,1
;   oozeShieldSidewallAngle,30
;   oozeShieldSpeedMultiplier,1
;   infillExtruder,0
;   internalInfillPattern,Rectilinear
;   externalInfillPattern,Rectilinear
;   infillPercentage,100
;   outlineOverlapPercentage,25
;   infillExtrusionWidthPercentage,150
;   minInfillLength,0
;   infillLayerInterval,1
;   internalInfillAngles,0,60,-60
;   overlapInternalInfillAngles,0
;   externalInfillAngles,45,-45
;   generateSupport,1
;   supportExtruder,0
;   supportInfillPercentage,30
;   supportExtraInflation,0
;   supportBaseLayers,0
;   denseSupportExtruder,0
;   denseSupportLayers,0
;   denseSupportInfillPercentage,70
;   supportLayerInterval,1
;   supportHorizontalPartOffset,0.35
;   supportUpperSeparationLayers,1
;   supportLowerSeparationLayers,1
;   supportType,0
;   supportGridSpacing,3
;   maxOverhangAngle,45
;   supportAngles,45,-45
;   temperatureName,Primary Extruder,cama
;   temperatureNumber,0,0
;   temperatureSetpointCount,2,1
;   temperatureSetpointLayers,1,2,1
;   temperatureSetpointTemperatures,200,190,60
;   temperatureStabilizeAtStartup,1,1
;   temperatureHeatedBed,0,1
;   temperatureRelayBetweenLayers,0,0
;   temperatureRelayBetweenLoops,0,0
;   fanLayers,1,2
;   fanSpeeds,0,100
;   blipFanToFullPower,0
;   adjustSpeedForCooling,1
;   minSpeedLayerTime,15
;   minCoolingSpeedSlowdown,25
;   increaseFanForCooling,0
;   minFanLayerTime,45
;   maxCoolingFanSpeed,100
;   increaseFanForBridging,0
;   bridgingFanSpeed,100
;   use5D,1
;   relativeEdistances,0
;   allowEaxisZeroing,1
;   independentExtruderAxes,0
;   includeM10123,0
;   stickySupport,1
;   applyToolheadOffsets,0
;   gcodeXoffset,0
;   gcodeYoffset,0
;   gcodeZoffset,0
;   overrideMachineDefinition,0
;   machineTypeOverride,0
;   strokeXoverride,200
;   strokeYoverride,200
;   strokeZoverride,200
;   originOffsetXoverride,0
;   originOffsetYoverride,0
;   originOffsetZoverride,0
;   homeXdirOverride,-1
;   homeYdirOverride,-1
;   homeZdirOverride,-1
;   flipXoverride,1
;   flipYoverride,-1
;   flipZoverride,1
;   toolheadOffsets,0,0|0,0|0,0|0,0|0,0|0,0
;   overrideFirmwareConfiguration,0
;   firmwareTypeOverride,RepRap (Marlin/Repetier/Sprinter)
;   GPXconfigOverride,r2
;   baudRateOverride,115200
;   overridePrinterModels,0
;   printerModelsOverride
;   startingGcode,G21;,G90;,M82;,M107;,G28 X0 Y0;,G28 Z0;,G92 E0;,G1 Z10;,M117 Imprimiendo...;
;   layerChangeGcode,
;   retractionGcode,
;   toolChangeGcode,
;   endingGcode,G10;,G92 Z0;,G1 Z5;,M107;,G1 X0 Y0;,M104 S0 ; turn off extruder,M140 S0 ; turn off bed,M84 ; disable motors,;victory,M300 S2349 P53;,M300 S0 P53;,M300 S2349 P53;,M300 S0 P53;,M300 S2349 P53;,M300 S0 P53;,M300 S2349 P428;,M300 S932 P428;,M300 S2093 P428;,M300 S2349 P107;,M300 S0 P214;,M300 S2093 P107;,M300 S2349 P857;
;   exportFileFormat,gcode
;   celebration,0
;   celebrationSong,Random Song
;   postProcessing,{REPLACE "; layer" "M117 Capa"},{REPLACE " Z = " " Z="}
;   defaultSpeed,3600
;   outlineUnderspeed,0.5
;   solidInfillUnderspeed,0.8
;   supportUnderspeed,0.8
;   rapidXYspeed,6000
;   rapidZspeed,600
;   minBridgingArea,50
;   bridgingExtraInflation,0
;   bridgingExtrusionMultiplier,1
;   bridgingSpeedMultiplier,1
;   useFixedBridgingAngle,0
;   fixedBridgingAngle,0
;   applyBridgingToPerimeters,0
;   filamentDiameters,1.75|1.75|1.75|1.75|1.75|1.75
;   filamentPricesPerKg,46|46|46|46|46|46
;   filamentDensities,1.25|1.25|1.25|1.25|1.25|1.25
;   useMinPrintHeight,0
;   minPrintHeight,0
;   useMaxPrintHeight,0
;   maxPrintHeight,19.27
;   useDiaphragm,0
;   diaphragmLayerInterval,20
;   robustSlicing,1
;   mergeAllIntoSolid,0
;   onlyRetractWhenCrossingOutline,1
;   retractBetweenLayers,0
;   useRetractionMinTravel,1
;   retractionMinTravel,5
;   retractWhileWiping,0
;   onlyWipeOutlines,0
;   avoidCrossingOutline,1
;   maxMovementDetourFactor,3
;   toolChangeRetractionDistance,12
;   toolChangeExtraRestartDistance,-0.5
;   toolChangeRetractionSpeed,600
;   externalThinWallType,0
;   internalThinWallType,2
;   thinWallAllowedOverlapPercentage,15
;   singleExtrusionMinLength,1
;   singleExtrusionMinPrintingWidthPercentage,50
;   singleExtrusionMaxPrintingWidthPercentage,200
;   singleExtrusionEndpointExtension,0.2
;   horizontalSizeCompensation,0
G90
M82
M106 S0
M140 S60
M190 S60
M104 S200 T0
M109 S200 T0
G21;
G90;
M82;
M107;
G28 X0 Y0;
G28 Z0;
G92 E0;
G1 Z10;
M117 Imprimiendo...;
G92 E0
G1 E-3.0000 F4200
G1 Z0.270 F600
; process Process1
M117 Capa 1, Z=0.270
T0
; tool H0.300 W0.400
; skirt
G1 X55.379 Y76.313 F6000
G1 E-0.1000 F1260
G92 E0
G1 X55.893 Y76.100 E0.0250 F1800
G1 X144.107 Y76.100 E3.9859
G1 X144.621 Y76.313 E4.0109
G1 X146.187 Y77.879 E4.1103
G1 X146.400 Y78.393 E4.1353
G1 X146.400 Y121.607 E6.0757
G1 X146.187 Y122.121 E6.1007
G1 X144.621 Y123.687 E6.2001
G1 X144.107 Y123.900 E6.2251
G1 X55.893 Y123.900 E10.1860
G1 X55.379 Y123.687 E10.2110
G1 X53.813 Y122.121 E10.3104
G1 X53.600 Y121.607 E10.3354
G1 X53.600 Y78.393 E12.2758
G1 X53.813 Y77.879 E12.3008
G1 X55.379 Y76.313 E12.4002
G1 X55.605 Y76.652 F6000
G92 E0
G1 X55.973 Y76.500 E0.0179 F1800
G1 X144.027 Y76.500 E3.9716
G1 X144.395 Y76.652 E3.9895
G1 X145.848 Y78.105 E4.0817
G1 X146.000 Y78.473 E4.0996
G1 X146.000 Y121.527 E6.0328
G1 X145.848 Y121.895 E6.0507
G1 X144.395 Y123.348 E6.1429
G1 X144.027 Y123.500 E6.1608
G1 X55.973 Y123.500 E10.1146
G1 X55.605 Y123.348 E10.1324
G1 X54.152 Y121.895 E10.2247
G1 X54.000 Y121.527 E10.2425
G1 X54.000 Y78.473 E12.1757
G1 X54.152 Y78.105 E12.1936
G1 X55.605 Y76.652 E12.2859
G1 X55.832 Y76.991 F6000
G92 E0
G1 X56.052 Y76.900 E0.0107 F1800
G1 X143.948 Y76.900 E3.9573
G1 X144.168 Y76.991 E3.9680
G1 X145.509 Y78.332 E4.0532
G1 X145.600 Y78.552 E4.0639
G1 X145.600 Y121.448 E5.9899
G1 X145.509 Y121.668 E6.0007
G1 X144.168 Y123.009 E6.0858
G1 X143.948 Y123.100 E6.0965
G1 X56.052 Y123.100 E10.0431
G1 X55.832 Y123.009 E10.0538
G1 X54.491 Y121.668 E10.1389
G1 X54.400 Y121.448 E10.1497
G1 X54.400 Y78.552 E12.0757
G1 X54.491 Y78.332 E12.0864
G1 X55.832 Y76.991 E12.1715
G1 X56.058 Y77.330 F6000
G92 E0
G1 X56.132 Y77.300 E0.0036 F1800
G1 X143.868 Y77.300 E3.9430
G1 X143.942 Y77.330 E3.9466
G1 X145.170 Y78.558 E4.0246
G1 X145.200 Y78.632 E4.0282
G1 X145.200 Y121.368 E5.9471
G1 X145.170 Y121.442 E5.9506
G1 X143.942 Y122.670 E6.0286
G1 X143.868 Y122.700 E6.0322
G1 X56.132 Y122.700 E9.9717
G1 X56.058 Y122.670 E9.9752
G1 X54.830 Y121.442 E10.0532
G1 X54.800 Y121.368 E10.0568
G1 X54.800 Y78.632 E11.9757
G1 X54.830 Y78.558 E11.9793
G1 X56.058 Y77.330 E12.0572
; inner perimeter
G1 X57.196 Y79.696 F6000
G1 X57.610 Y79.696 F6000
G1 X58.400 Y80.900 F6000
G92 E0
G1 X141.600 Y80.900 E3.7358 F1350
G1 X141.600 Y119.100 E5.4510
G1 X58.400 Y119.100 E9.1868
G1 X58.400 Y80.900 E10.9020
G1 X58.000 Y80.500 F6000
G92 E0
G1 X142.000 Y80.500 E3.7717 F1350
G1 X142.000 Y119.500 E5.5228
G1 X58.000 Y119.500 E9.2945
G1 X58.000 Y80.500 E11.0457
G1 X57.600 Y80.100 F6000
G92 E0
G1 X142.400 Y80.100 E3.8076 F1350
G1 X142.400 Y119.900 E5.5947
G1 X57.600 Y119.900 E9.4023
G1 X57.600 Y80.100 E11.1894
; outer perimeter
G1 X57.200 Y79.700 F6000
G92 E0
G1 X142.800 Y79.700 E3.8435 F900
G1 X142.800 Y120.300 E5.6665
G1 X57.200 Y120.300 E9.5101
G1 X57.200 Y79.700 E11.3331
; solid layer
G1 X58.837 Y118.800 F6000
G92 E0
G1 X58.700 Y118.663 E0.0087 F1440
G1 X58.700 Y118.097 E0.0341
G1 X59.403 Y118.800 E0.0788
G1 X59.969 Y118.800 E0.1042
G1 X58.700 Y117.531 E0.1847
G1 X58.700 Y116.966 E0.2101
G1 X60.534 Y118.800 E0.3266
G1 X61.100 Y118.800 E0.3520
G1 X58.700 Y116.400 E0.5044
G1 X58.700 Y115.834 E0.5298
G1 X61.666 Y118.800 E0.7181
G1 X62.231 Y118.800 E0.7435
G1 X58.700 Y115.269 E0.9678
G1 X58.700 Y114.703 E0.9932
G1 X62.797 Y118.800 E1.2534
G1 X63.363 Y118.800 E1.2788
G1 X58.700 Y114.137 E1.5749
G1 X58.700 Y113.571 E1.6003
G1 X63.929 Y118.800 E1.9323
G1 X64.494 Y118.800 E1.9577
G1 X58.700 Y113.006 E2.3256
G1 X58.700 Y112.440 E2.3510
G1 X65.060 Y118.800 E2.7548
G1 X65.626 Y118.800 E2.7802
G1 X58.700 Y111.874 E3.2200
G1 X58.700 Y111.309 E3.2454
G1 X66.191 Y118.800 E3.7211
G1 X66.757 Y118.800 E3.7465
G1 X58.700 Y110.743 E4.2581
G1 X58.700 Y110.177 E4.2835
G1 X67.323 Y118.800 E4.8311
G1 X67.888 Y118.800 E4.8565
G1 X58.700 Y109.612 E5.4399
G1 X58.700 Y109.046 E5.4653
G1 X68.454 Y118.800 E6.0847
G1 X69.020 Y118.800 E6.1101
G1 X58.700 Y108.480 E6.7654
G1 X58.700 Y107.915 E6.7908
G1 X69.585 Y118.800 E7.4820
G1 X70.151 Y118.800 E7.5074
G1 X58.700 Y107.349 E8.2346
G1 X58.700 Y106.783 E8.2600
G1 X70.717 Y118.800 E9.0230
G1 X71.282 Y118.800 E9.0484
G1 X58.700 Y106.218 E9.8474
G1 X58.700 Y105.652 E9.8728
G1 X71.848 Y118.800 E10.7077
G1 X72.414 Y118.800 E10.7331
G1 X58.700 Y105.086 E11.6039
G1 X58.700 Y104.521 E11.6293
G1 X72.979 Y118.800 E12.5361
G1 X73.545 Y118.800 E12.5615
G1 X58.700 Y103.955 E13.5042
G1 X58.700 Y103.389 E13.5296
G1 X74.111 Y118.800 E14.5081
G1 X74.677 Y118.800 E14.5335
G1 X58.700 Y102.823 E15.5480
G1 X58.700 Y102.258 E15.5734
G1 X75.242 Y118.800 E16.6239
G1 X75.808 Y118.800 E16.6493
G1 X58.700 Y101.692 E17.7356
G1 X58.700 Y101.126 E17.7610
G1 X76.374 Y118.800 E18.8833
G1 X76.939 Y118.800 E18.9087
G1 X58.700 Y100.561 E20.0669
G1 X58.700 Y99.995 E20.0923
G1 X77.505 Y118.800 E21.2864
G1 X78.071 Y118.800 E21.3118
G1 X58.700 Y99.429 E22.5418
G1 X58.700 Y98.864 E22.5672
G1 X78.636 Y118.800 E23.8332
G1 X79.202 Y118.800 E23.8586
G1 X58.700 Y98.298 E25.1605
G1 X58.700 Y97.732 E25.1859
G1 X79.768 Y118.800 E26.5237
G1 X80.333 Y118.800 E26.5491
G1 X58.700 Y97.167 E27.9228
G1 X58.700 Y96.601 E27.9482
G1 X80.899 Y118.800 E29.3578
G1 X81.465 Y118.800 E29.3832
G1 X58.700 Y96.035 E30.8288
G1 X58.700 Y95.470 E30.8542
G1 X82.030 Y118.800 E32.3357
G1 X82.596 Y118.800 E32.3611
G1 X58.700 Y94.904 E33.8785
G1 X58.700 Y94.338 E33.9039
G1 X83.162 Y118.800 E35.4572
G1 X83.728 Y118.800 E35.4826
G1 X58.700 Y93.772 E37.0718
G1 X58.700 Y93.207 E37.0972
G1 X84.293 Y118.800 E38.7224
G1 X84.859 Y118.800 E38.7478
G1 X58.700 Y92.641 E40.4089
G1 X58.700 Y92.075 E40.4343
G1 X85.425 Y118.800 E42.1313
G1 X85.990 Y118.800 E42.1567
G1 X58.700 Y91.510 E43.8896
G1 X58.700 Y90.944 E43.9150
G1 X86.556 Y118.800 E45.6839
G1 X87.122 Y118.800 E45.7093
G1 X58.700 Y90.378 E47.5140
G1 X58.700 Y89.813 E47.5394
G1 X87.687 Y118.800 E49.3801
G1 X88.253 Y118.800 E49.4055
G1 X58.700 Y89.247 E51.2821
G1 X58.700 Y88.681 E51.3075
G1 X88.819 Y118.800 E53.2201
G1 X89.384 Y118.800 E53.2455
G1 X58.700 Y88.116 E55.1939
G1 X58.700 Y87.550 E55.2193
G1 X89.950 Y118.800 E57.2037
G1 X90.516 Y118.800 E57.2291
G1 X58.700 Y86.984 E59.2494
G1 X58.700 Y86.419 E59.2748
G1 X91.081 Y118.800 E61.3310
G1 X91.647 Y118.800 E61.3564
G1 X58.700 Y85.853 E63.4485
G1 X58.700 Y85.287 E63.4739
G1 X92.213 Y118.800 E65.6020
G1 X92.778 Y118.800 E65.6274
G1 X58.700 Y84.722 E67.7914
G1 X58.700 Y84.156 E67.8168
G1 X93.344 Y118.800 E70.0167
G1 X93.910 Y118.800 E70.0421
G1 X58.700 Y83.590 E72.2779
G1 X58.700 Y83.024 E72.3033
G1 X94.476 Y118.800 E74.5750
G1 X95.041 Y118.800 E74.6004
G1 X58.700 Y82.459 E76.9081
G1 X58.700 Y81.893 E76.9335
G1 X95.607 Y118.800 E79.2771
G1 X96.173 Y118.800 E79.3025
G1 X58.700 Y81.327 E81.6820
G1 X58.700 Y81.200 E81.6877
G1 X59.138 Y81.200 E81.7074
G1 X96.738 Y118.800 E84.0950
G1 X97.304 Y118.800 E84.1204
G1 X59.704 Y81.200 E86.5080
G1 X60.270 Y81.200 E86.5334
G1 X97.870 Y118.800 E88.9210
G1 X98.435 Y118.800 E88.9464
G1 X60.835 Y81.200 E91.3340
G1 X61.401 Y81.200 E91.3594
G1 X99.001 Y118.800 E93.7470
G1 X99.567 Y118.800 E93.7724
G1 X61.967 Y81.200 E96.1600
G1 X62.532 Y81.200 E96.1854
G1 X100.132 Y118.800 E98.5730
G1 X100.698 Y118.800 E98.5984
G1 X63.098 Y81.200 E100.9860
G1 X63.664 Y81.200 E101.0114
G1 X101.264 Y118.800 E103.3989
G1 X101.829 Y118.800 E103.4243
G1 X64.229 Y81.200 E105.8119
G1 X64.795 Y81.200 E105.8373
G1 X102.395 Y118.800 E108.2249
G1 X102.961 Y118.800 E108.2503
G1 X65.361 Y81.200 E110.6379
G1 X65.927 Y81.200 E110.6633
G1 X103.527 Y118.800 E113.0509
G1 X104.092 Y118.800 E113.0763
G1 X66.492 Y81.200 E115.4639
G1 X67.058 Y81.200 E115.4893
G1 X104.658 Y118.800 E117.8769
G1 X105.224 Y118.800 E117.9023
G1 X67.624 Y81.200 E120.2899
G1 X68.189 Y81.200 E120.3153
G1 X105.789 Y118.800 E122.7029
G1 X106.355 Y118.800 E122.7283
G1 X68.755 Y81.200 E125.1159
G1 X69.321 Y81.200 E125.1413
G1 X106.921 Y118.800 E127.5289
G1 X107.486 Y118.800 E127.5543
G1 X69.886 Y81.200 E129.9419
G1 X70.452 Y81.200 E129.9673
G1 X108.052 Y118.800 E132.3549
G1 X108.618 Y118.800 E132.3803
G1 X71.018 Y81.200 E134.7679
G1 X71.583 Y81.200 E134.7933
G1 X109.183 Y118.800 E137.1809
G1 X109.749 Y118.800 E137.2063
G1 X72.149 Y81.200 E139.5939
G1 X72.715 Y81.200 E139.6193
G1 X110.315 Y118.800 E142.0069
G1 X110.880 Y118.800 E142.0323
G1 X73.280 Y81.200 E144.4199
G1 X73.846 Y81.200 E144.4453
G1 X111.446 Y118.800 E146.8329
G1 X112.012 Y118.800 E146.8583
G1 X74.412 Y81.200 E149.2458
G1 X74.977 Y81.200 E149.2712
G1 X112.577 Y118.800 E151.6588
G1 X113.143 Y118.800 E151.6842
G1 X75.543 Y81.200 E154.0718
G1 X76.109 Y81.200 E154.0972
G1 X113.709 Y118.800 E156.4848
G1 X114.275 Y118.800 E156.5102
G1 X76.675 Y81.200 E158.8978
G1 X77.240 Y81.200 E158.9232
G1 X114.840 Y118.800 E161.3108
G1 X115.406 Y118.800 E161.3362
G1 X77.806 Y81.200 E163.7238
G1 X78.372 Y81.200 E163.7492
G1 X115.972 Y118.800 E166.1368
G1 X116.537 Y118.800 E166.1622
G1 X78.937 Y81.200 E168.5498
G1 X79.503 Y81.200 E168.5752
G1 X117.103 Y118.800 E170.9628
G1 X117.669 Y118.800 E170.9882
G1 X80.069 Y81.200 E173.3758
G1 X80.634 Y81.200 E173.4012
G1 X118.234 Y118.800 E175.7888
G1 X118.800 Y118.800 E175.8142
G1 X81.200 Y81.200 E178.2018
G1 X81.766 Y81.200 E178.2272
G1 X119.366 Y118.800 E180.6148
G1 X119.931 Y118.800 E180.6402
G1 X82.331 Y81.200 E183.0278
G1 X82.897 Y81.200 E183.0532
G1 X120.497 Y118.800 E185.4408
G1 X121.063 Y118.800 E185.4662
G1 X83.463 Y81.200 E187.8538
G1 X84.028 Y81.200 E187.8792
G1 X121.628 Y118.800 E190.2668
G1 X122.194 Y118.800 E190.2922
G1 X84.594 Y81.200 E192.6798
G1 X85.160 Y81.200 E192.7052
G1 X122.760 Y118.800 E195.0927
