; G-Code generated by Simplify3D(R) Version 4.0.0
; Feb 6, 2020 at 10:20:29 PM
; Settings Summary
;   processName,Process1
;   applyToModels,tapacerrojo
;   profileName,ANET A8 - BQ ROJO (modified)
;   profileVersion,2017-06-19 18:47:58
;   baseProfile,ANET A8
;   printMaterial,
;   printQuality,
;   printExtruders,
;   extruderName,Primary Extruder
;   extruderToolheadNumber,0
;   extruderDiameter,0.4
;   extruderAutoWidth,0
;   extruderWidth,0.4
;   extrusionMultiplier,0.9
;   extruderUseRetract,1
;   extruderRetractionDistance,3
;   extruderExtraRestartDistance,-0.1
;   extruderRetractionZLift,0
;   extruderRetractionSpeed,4200
;   extruderUseCoasting,0
;   extruderCoastingDistance,0.2
;   extruderUseWipe,0
;   extruderWipeDistance,5
;   primaryExtruder,0
;   layerHeight,0.3
;   topSolidLayers,4
;   bottomSolidLayers,4
;   perimeterOutlines,4
;   printPerimetersInsideOut,1
;   startPointOption,2
;   startPointOriginX,0
;   startPointOriginY,0
;   sequentialIslands,0
;   spiralVaseMode,0
;   firstLayerHeightPercentage,90
;   firstLayerWidthPercentage,100
;   firstLayerUnderspeed,0.5
;   useRaft,0
;   raftExtruder,0
;   raftTopLayers,3
;   raftBaseLayers,2
;   raftOffset,3
;   raftSeparationDistance,0.14
;   raftTopInfill,100
;   aboveRaftSpeedMultiplier,0.3
;   useSkirt,1
;   skirtExtruder,0
;   skirtLayers,1
;   skirtOutlines,4
;   skirtOffset,2
;   usePrimePillar,0
;   primePillarExtruder,999
;   primePillarWidth,12
;   primePillarLocation,7
;   primePillarSpeedMultiplier,1
;   useOozeShield,0
;   oozeShieldExtruder,999
;   oozeShieldOffset,2
;   oozeShieldOutlines,1
;   oozeShieldSidewallShape,1
;   oozeShieldSidewallAngle,30
;   oozeShieldSpeedMultiplier,1
;   infillExtruder,0
;   internalInfillPattern,Rectilinear
;   externalInfillPattern,Rectilinear
;   infillPercentage,100
;   outlineOverlapPercentage,25
;   infillExtrusionWidthPercentage,150
;   minInfillLength,0
;   infillLayerInterval,1
;   internalInfillAngles,0,60,-60
;   overlapInternalInfillAngles,0
;   externalInfillAngles,45,-45
;   generateSupport,1
;   supportExtruder,0
;   supportInfillPercentage,30
;   supportExtraInflation,0
;   supportBaseLayers,0
;   denseSupportExtruder,0
;   denseSupportLayers,0
;   denseSupportInfillPercentage,70
;   supportLayerInterval,1
;   supportHorizontalPartOffset,0.35
;   supportUpperSeparationLayers,1
;   supportLowerSeparationLayers,1
;   supportType,0
;   supportGridSpacing,3
;   maxOverhangAngle,45
;   supportAngles,45,-45
;   temperatureName,Primary Extruder,cama
;   temperatureNumber,0,0
;   temperatureSetpointCount,2,1
;   temperatureSetpointLayers,1,2,1
;   temperatureSetpointTemperatures,200,190,60
;   temperatureStabilizeAtStartup,1,1
;   temperatureHeatedBed,0,1
;   temperatureRelayBetweenLayers,0,0
;   temperatureRelayBetweenLoops,0,0
;   fanLayers,1,2
;   fanSpeeds,0,100
;   blipFanToFullPower,0
;   adjustSpeedForCooling,1
;   minSpeedLayerTime,15
;   minCoolingSpeedSlowdown,25
;   increaseFanForCooling,0
;   minFanLayerTime,45
;   maxCoolingFanSpeed,100
;   increaseFanForBridging,0
;   bridgingFanSpeed,100
;   use5D,1
;   relativeEdistances,0
;   allowEaxisZeroing,1
;   independentExtruderAxes,0
;   includeM10123,0
;   stickySupport,1
;   applyToolheadOffsets,0
;   gcodeXoffset,0
;   gcodeYoffset,0
;   gcodeZoffset,0
;   overrideMachineDefinition,0
;   machineTypeOverride,0
;   strokeXoverride,200
;   strokeYoverride,200
;   strokeZoverride,200
;   originOffsetXoverride,0
;   originOffsetYoverride,0
;   originOffsetZoverride,0
;   homeXdirOverride,-1
;   homeYdirOverride,-1
;   homeZdirOverride,-1
;   flipXoverride,1
;   flipYoverride,-1
;   flipZoverride,1
;   toolheadOffsets,0,0|0,0|0,0|0,0|0,0|0,0
;   overrideFirmwareConfiguration,0
;   firmwareTypeOverride,RepRap (Marlin/Repetier/Sprinter)
;   GPXconfigOverride,r2
;   baudRateOverride,115200
;   overridePrinterModels,0
;   printerModelsOverride
;   startingGcode,G21;,G90;,M82;,M107;,G28 X0 Y0;,G28 Z0;,G92 E0;,G1 Z10;,M117 Imprimiendo...;
;   layerChangeGcode,
;   retractionGcode,
;   toolChangeGcode,
;   endingGcode,G10;,G92 Z0;,G1 Z5;,M107;,G1 X0 Y0;,M104 S0 ; turn off extruder,M140 S0 ; turn off bed,M84 ; disable motors,;victory,M300 S2349 P53;,M300 S0 P53;,M300 S2349 P53;,M300 S0 P53;,M300 S2349 P53;,M300 S0 P53;,M300 S2349 P428;,M300 S932 P428;,M300 S2093 P428;,M300 S2349 P107;,M300 S0 P214;,M300 S2093 P107;,M300 S2349 P857;
;   exportFileFormat,gcode
;   celebration,0
;   celebrationSong,Random Song
;   postProcessing,{REPLACE "; layer" "M117 Capa"},{REPLACE " Z = " " Z="}
;   defaultSpeed,3600
;   outlineUnderspeed,0.5
;   solidInfillUnderspeed,0.8
;   supportUnderspeed,0.8
;   rapidXYspeed,6000
;   rapidZspeed,600
;   minBridgingArea,50
;   bridgingExtraInflation,0
;   bridgingExtrusionMultiplier,1
;   bridgingSpeedMultiplier,1
;   useFixedBridgingAngle,0
;   fixedBridgingAngle,0
;   applyBridgingToPerimeters,0
;   filamentDiameters,1.75|1.75|1.75|1.75|1.75|1.75
;   filamentPricesPerKg,46|46|46|46|46|46
;   filamentDensities,1.25|1.25|1.25|1.25|1.25|1.25
;   useMinPrintHeight,0
;   minPrintHeight,0
;   useMaxPrintHeight,0
;   maxPrintHeight,19.27
;   useDiaphragm,0
;   diaphragmLayerInterval,20
;   robustSlicing,1
;   mergeAllIntoSolid,0
;   onlyRetractWhenCrossingOutline,1
;   retractBetweenLayers,0
;   useRetractionMinTravel,1
;   retractionMinTravel,5
;   retractWhileWiping,0
;   onlyWipeOutlines,0
;   avoidCrossingOutline,1
;   maxMovementDetourFactor,3
;   toolChangeRetractionDistance,12
;   toolChangeExtraRestartDistance,-0.5
;   toolChangeRetractionSpeed,600
;   externalThinWallType,0
;   internalThinWallType,2
;   thinWallAllowedOverlapPercentage,15
;   singleExtrusionMinLength,1
;   singleExtrusionMinPrintingWidthPercentage,50
;   singleExtrusionMaxPrintingWidthPercentage,200
;   singleExtrusionEndpointExtension,0.2
;   horizontalSizeCompensation,0
G90
M82
M106 S0
M140 S60
M190 S60
M104 S200 T0
M109 S200 T0
G21;
G90;
M82;
M107;
G28 X0 Y0;
G28 Z0;
G92 E0;
G1 Z10;
M117 Imprimiendo...;
G92 E0
G1 E-3.0000 F4200
G1 Z0.270 F600
; process Process1
M117 Capa 1, Z=0.270
T0
; tool H0.300 W0.400
; skirt
G1 X58.813 Y55.379 F6000
G1 E-0.1000 F1260
G92 E0
G1 X60.379 Y53.813 E0.0994 F1800
G1 X60.893 Y53.600 E0.1244
G1 X139.107 Y53.600 E3.6363
G1 X139.621 Y53.813 E3.6613
G1 X141.187 Y55.379 E3.7607
G1 X141.400 Y55.893 E3.7857
G1 X141.400 Y144.107 E7.7466
G1 X141.187 Y144.621 E7.7716
G1 X139.621 Y146.187 E7.8710
G1 X139.107 Y146.400 E7.8960
G1 X60.893 Y146.400 E11.4079
G1 X60.379 Y146.187 E11.4329
G1 X58.813 Y144.621 E11.5323
G1 X58.600 Y144.107 E11.5574
G1 X58.600 Y55.893 E15.5183
G1 X58.813 Y55.379 E15.5433
G1 X59.152 Y55.605 F6000
G92 E0
G1 X60.605 Y54.152 E0.0923 F1800
G1 X60.973 Y54.000 E0.1101
G1 X139.027 Y54.000 E3.6149
G1 X139.395 Y54.152 E3.6327
G1 X140.848 Y55.605 E3.7250
G1 X141.000 Y55.973 E3.7429
G1 X141.000 Y144.027 E7.6966
G1 X140.848 Y144.395 E7.7145
G1 X139.395 Y145.848 E7.8067
G1 X139.027 Y146.000 E7.8246
G1 X60.973 Y146.000 E11.3293
G1 X60.605 Y145.848 E11.3472
G1 X59.152 Y144.395 E11.4395
G1 X59.000 Y144.027 E11.4573
G1 X59.000 Y55.973 E15.4111
G1 X59.152 Y55.605 E15.4289
G1 X59.491 Y55.832 F6000
G92 E0
G1 X60.832 Y54.491 E0.0851 F1800
G1 X61.052 Y54.400 E0.0958
G1 X138.948 Y54.400 E3.5934
G1 X139.168 Y54.491 E3.6042
G1 X140.509 Y55.832 E3.6893
G1 X140.600 Y56.052 E3.7000
G1 X140.600 Y143.948 E7.6466
G1 X140.509 Y144.168 E7.6573
G1 X139.168 Y145.509 E7.7424
G1 X138.948 Y145.600 E7.7531
G1 X61.052 Y145.600 E11.2507
G1 X60.832 Y145.509 E11.2615
G1 X59.491 Y144.168 E11.3466
G1 X59.400 Y143.948 E11.3573
G1 X59.400 Y56.052 E15.3039
G1 X59.491 Y55.832 E15.3146
G1 X59.830 Y56.058 F6000
G92 E0
G1 X61.058 Y54.830 E0.0780 F1800
G1 X61.132 Y54.800 E0.0815
G1 X138.868 Y54.800 E3.5720
G1 X138.942 Y54.830 E3.5756
G1 X140.170 Y56.058 E3.6535
G1 X140.200 Y56.132 E3.6571
G1 X140.200 Y143.868 E7.5966
G1 X140.170 Y143.942 E7.6002
G1 X138.942 Y145.170 E7.6781
G1 X138.868 Y145.200 E7.6817
G1 X61.132 Y145.200 E11.1721
G1 X61.058 Y145.170 E11.1757
G1 X59.830 Y143.942 E11.2537
G1 X59.800 Y143.868 E11.2573
G1 X59.800 Y56.132 E15.1967
G1 X59.830 Y56.058 E15.2003
; inner perimeter
G1 X62.196 Y57.196 F6000
G1 X62.196 Y57.610 F6000
G1 X63.400 Y58.400 F6000
G92 E0
G1 X136.600 Y58.400 E3.2868 F1350
G1 X136.600 Y141.600 E7.0225
G1 X63.400 Y141.600 E10.3093
G1 X63.400 Y58.400 E14.0451
G1 X63.000 Y58.000 F6000
G92 E0
G1 X137.000 Y58.000 E3.3227 F1350
G1 X137.000 Y142.000 E7.0944
G1 X63.000 Y142.000 E10.4171
G1 X63.000 Y58.000 E14.1888
G1 X62.600 Y57.600 F6000
G92 E0
G1 X137.400 Y57.600 E3.3586 F1350
G1 X137.400 Y142.400 E7.1662
G1 X62.600 Y142.400 E10.5248
G1 X62.600 Y57.600 E14.3325
; outer perimeter
G1 X62.200 Y57.200 F6000
G92 E0
G1 X137.800 Y57.200 E3.3945 F900
G1 X137.800 Y142.800 E7.2381
G1 X62.200 Y142.800 E10.6326
G1 X62.200 Y57.200 E14.4761
; solid layer
G1 X136.199 Y58.700 F6000
G92 E0
G1 X136.300 Y58.801 E0.0064 F1440
G1 X136.300 Y59.367 E0.0318
G1 X135.633 Y58.700 E0.0742
G1 X135.068 Y58.700 E0.0996
G1 X136.300 Y59.932 E0.1778
G1 X136.300 Y60.498 E0.2032
G1 X134.502 Y58.700 E0.3174
G1 X133.936 Y58.700 E0.3428
G1 X136.300 Y61.064 E0.4929
G1 X136.300 Y61.630 E0.5183
G1 X133.370 Y58.700 E0.7043
G1 X132.805 Y58.700 E0.7297
G1 X136.300 Y62.195 E0.9517
G1 X136.300 Y62.761 E0.9771
G1 X132.239 Y58.700 E1.2349
G1 X131.673 Y58.700 E1.2603
G1 X136.300 Y63.327 E1.5541
G1 X136.300 Y63.892 E1.5795
G1 X131.108 Y58.700 E1.9092
G1 X130.542 Y58.700 E1.9346
G1 X136.300 Y64.458 E2.3003
G1 X136.300 Y65.024 E2.3257
G1 X129.976 Y58.700 E2.7272
G1 X129.411 Y58.700 E2.7526
G1 X136.300 Y65.589 E3.1901
G1 X136.300 Y66.155 E3.2155
G1 X128.845 Y58.700 E3.6889
G1 X128.279 Y58.700 E3.7143
G1 X136.300 Y66.721 E4.2236
G1 X136.300 Y67.286 E4.2490
G1 X127.714 Y58.700 E4.7942
G1 X127.148 Y58.700 E4.8196
G1 X136.300 Y67.852 E5.4008
G1 X136.300 Y68.418 E5.4262
G1 X126.582 Y58.700 E6.0432
G1 X126.017 Y58.700 E6.0686
G1 X136.300 Y68.983 E6.7216
G1 X136.300 Y69.549 E6.7470
G1 X125.451 Y58.700 E7.4360
G1 X124.885 Y58.700 E7.4614
G1 X136.300 Y70.115 E8.1862
G1 X136.300 Y70.680 E8.2116
G1 X124.320 Y58.700 E8.9724
G1 X123.754 Y58.700 E8.9978
G1 X136.300 Y71.246 E9.7944
G1 X136.300 Y71.812 E9.8198
G1 X123.188 Y58.700 E10.6524
G1 X122.622 Y58.700 E10.6778
G1 X136.300 Y72.378 E11.5464
G1 X136.300 Y72.943 E11.5718
G1 X122.057 Y58.700 E12.4762
G1 X121.491 Y58.700 E12.5016
G1 X136.300 Y73.509 E13.4420
G1 X136.300 Y74.075 E13.4674
G1 X120.925 Y58.700 E14.4436
G1 X120.360 Y58.700 E14.4690
G1 X136.300 Y74.640 E15.4813
G1 X136.300 Y75.206 E15.5067
G1 X119.794 Y58.700 E16.5548
G1 X119.228 Y58.700 E16.5802
G1 X136.300 Y75.772 E17.6642
G1 X136.300 Y76.337 E17.6896
G1 X118.663 Y58.700 E18.8096
G1 X118.097 Y58.700 E18.8350
G1 X136.300 Y76.903 E19.9909
G1 X136.300 Y77.469 E20.0163
G1 X117.531 Y58.700 E21.2081
G1 X116.966 Y58.700 E21.2335
G1 X136.300 Y78.034 E22.4612
G1 X136.300 Y78.600 E22.4866
G1 X116.400 Y58.700 E23.7503
G1 X115.834 Y58.700 E23.7757
G1 X136.300 Y79.166 E25.0753
G1 X136.300 Y79.731 E25.1007
G1 X115.269 Y58.700 E26.4361
G1 X114.703 Y58.700 E26.4615
G1 X136.300 Y80.297 E27.8330
G1 X136.300 Y80.863 E27.8584
G1 X114.137 Y58.700 E29.2657
G1 X113.571 Y58.700 E29.2911
G1 X136.300 Y81.429 E30.7344
G1 X136.300 Y81.994 E30.7598
G1 X113.006 Y58.700 E32.2389
G1 X112.440 Y58.700 E32.2643
G1 X136.300 Y82.560 E33.7794
G1 X136.300 Y83.126 E33.8048
G1 X111.874 Y58.700 E35.3558
G1 X111.309 Y58.700 E35.3812
G1 X136.300 Y83.691 E36.9682
G1 X136.300 Y84.257 E36.9936
G1 X110.743 Y58.700 E38.6165
G1 X110.177 Y58.700 E38.6418
G1 X136.300 Y84.823 E40.3006
G1 X136.300 Y85.388 E40.3260
G1 X109.612 Y58.700 E42.0207
G1 X109.046 Y58.700 E42.0461
G1 X136.300 Y85.954 E43.7768
G1 X136.300 Y86.520 E43.8022
G1 X108.480 Y58.700 E45.5687
G1 X107.915 Y58.700 E45.5941
G1 X136.300 Y87.085 E47.3966
G1 X136.300 Y87.651 E47.4220
G1 X107.349 Y58.700 E49.2604
G1 X106.783 Y58.700 E49.2858
G1 X136.300 Y88.217 E51.1601
G1 X136.300 Y88.782 E51.1855
G1 X106.218 Y58.700 E53.0957
G1 X105.652 Y58.700 E53.1211
G1 X136.300 Y89.348 E55.0672
G1 X136.300 Y89.914 E55.0926
G1 X105.086 Y58.700 E57.0747
G1 X104.521 Y58.700 E57.1001
G1 X136.300 Y90.479 E59.1181
G1 X136.300 Y91.045 E59.1435
G1 X103.955 Y58.700 E61.1974
G1 X103.389 Y58.700 E61.2228
G1 X136.300 Y91.611 E63.3127
G1 X136.300 Y92.177 E63.3381
G1 X102.823 Y58.700 E65.4638
G1 X102.258 Y58.700 E65.4892
G1 X136.300 Y92.742 E67.6509
G1 X136.300 Y93.308 E67.6763
G1 X101.692 Y58.700 E69.8739
G1 X101.126 Y58.700 E69.8993
G1 X136.300 Y93.874 E72.1328
G1 X136.300 Y94.439 E72.1582
G1 X100.561 Y58.700 E74.4276
G1 X99.995 Y58.700 E74.4530
G1 X136.300 Y95.005 E76.7584
G1 X136.300 Y95.571 E76.7838
G1 X99.429 Y58.700 E79.1251
G1 X98.864 Y58.700 E79.1505
G1 X136.300 Y96.136 E81.5277
G1 X136.300 Y96.702 E81.5531
G1 X98.298 Y58.700 E83.9662
G1 X97.732 Y58.700 E83.9916
G1 X136.300 Y97.268 E86.4406
G1 X136.300 Y97.833 E86.4660
G1 X97.167 Y58.700 E88.9510
G1 X96.601 Y58.700 E88.9764
G1 X136.300 Y98.399 E91.4973
G1 X136.300 Y98.965 E91.5227
G1 X96.035 Y58.700 E94.0795
G1 X95.470 Y58.700 E94.1049
G1 X136.300 Y99.530 E96.6976
G1 X136.300 Y100.096 E96.7230
G1 X94.904 Y58.700 E99.3517
G1 X94.338 Y58.700 E99.3771
G1 X136.300 Y100.662 E102.0416
G1 X136.300 Y101.227 E102.0670
G1 X93.773 Y58.700 E104.7675
G1 X93.207 Y58.700 E104.7929
G1 X136.300 Y101.793 E107.5293
G1 X136.300 Y102.359 E107.5547
G1 X92.641 Y58.700 E110.3271
G1 X92.075 Y58.700 E110.3525
G1 X136.300 Y102.925 E113.1607
G1 X136.300 Y103.490 E113.1861
G1 X91.510 Y58.700 E116.0303
G1 X90.944 Y58.700 E116.0557
G1 X136.300 Y104.056 E118.9358
G1 X136.300 Y104.622 E118.9612
G1 X90.378 Y58.700 E121.8772
G1 X89.813 Y58.700 E121.9026
G1 X136.300 Y105.187 E124.8546
G1 X136.300 Y105.753 E124.8800
G1 X89.247 Y58.700 E127.8678
G1 X88.681 Y58.700 E127.8932
G1 X136.300 Y106.319 E130.9170
G1 X136.300 Y106.884 E130.9424
G1 X88.116 Y58.700 E134.0021
G1 X87.550 Y58.700 E134.0275
G1 X136.300 Y107.450 E137.1231
G1 X136.300 Y108.016 E137.1485
G1 X86.984 Y58.700 E140.2800
G1 X86.419 Y58.700 E140.3054
G1 X136.300 Y108.581 E143.4729
G1 X136.300 Y109.147 E143.4983
G1 X85.853 Y58.700 E146.7017
G1 X85.287 Y58.700 E146.7271
G1 X136.300 Y109.713 E149.9664
G1 X136.300 Y110.278 E149.9918
G1 X84.722 Y58.700 E153.2670
G1 X84.156 Y58.700 E153.2924
G1 X136.300 Y110.844 E156.6036
G1 X136.300 Y111.410 E156.6290
G1 X83.590 Y58.700 E159.9760
G1 X83.024 Y58.700 E160.0014
G1 X136.300 Y111.976 E163.3844
G1 X136.300 Y112.541 E163.4098
G1 X82.459 Y58.700 E166.8287
G1 X81.893 Y58.700 E166.8541
G1 X136.300 Y113.107 E170.3090
G1 X136.300 Y113.673 E170.3344
G1 X81.327 Y58.700 E173.8251
G1 X80.762 Y58.700 E173.8505
G1 X136.300 Y114.238 E177.3772
G1 X136.300 Y114.804 E177.4026
G1 X80.196 Y58.700 E180.9652
G1 X79.630 Y58.700 E180.9906
G1 X136.300 Y115.370 E184.5891
G1 X136.300 Y115.935 E184.6145
G1 X79.065 Y58.700 E188.2489
G1 X78.499 Y58.700 E188.2743
G1 X136.300 Y116.501 E191.9447
G1 X136.300 Y117.067 E191.9701
G1 X77.933 Y58.700 E195.6764
G1 X77.368 Y58.700 E195.7018
G1 X136.300 Y117.632 E199.4440
G1 X136.300 Y118.198 E199.4694
G1 X76.802 Y58.700 E203.2475
G1 X76.236 Y58.700 E203.2729
G1 X136.300 Y118.764 E207.0869
G1 X136.300 Y119.329 E207.1123
G1 X75.671 Y58.700 E210.9623
G1 X75.105 Y58.700 E210.9877
G1 X136.300 Y119.895 E214.8736
G1 X136.300 Y120.461 E214.8990
G1 X74.539 Y58.700 E218.8208
G1 X73.974 Y58.700 E218.8462
G1 X136.300 Y121.026 E222.8039
G1 X136.300 Y121.592 E222.8293
G1 X73.408 Y58.700 E226.8229
G1 X72.842 Y58.700 E226.8483
G1 X136.300 Y122.158 E230.8779
G1 X136.300 Y122.724 E230.9033
G1 X72.276 Y58.700 E234.9688
